src/assets/svgs/moon.svg

<svg xmlns="http://www.w3.org/2000/svg" viewBox="0 0 480 480" style="enable-background:new 0 0 480 480" xml:space="preserve"><path d="M459.782 347.328c-4.288-5.28-11.488-7.232-17.824-4.96-17.76 6.368-37.024 9.632-57.312 9.632-97.056 0-176-78.976-176-176 0-58.4 28.832-112.768 77.12-145.472 5.472-3.712 8.096-10.4 6.624-16.832S285.638 2.4 279.078 1.44C271.59.352 264.134 0 256.646 0c-132.352 0-240 107.648-240 240s107.648 240 240 240c84 0 160.416-42.688 204.352-114.176 3.552-5.792 3.04-13.184-1.216-18.496z"/></svg>

<svg width="480" height="480" viewBox="0 0 480 480" fill="none" xmlns="http://www.w3.org/2000/svg">
<rect width="480" height="480" fill="#1E1E1E"/>
<path d="M459.783 347.328C455.495 342.048 448.294 340.096 441.958 342.368C424.198 348.736 404.934 352 384.646 352C287.59 352 208.646 273.024 208.646 176C208.646 117.6 237.478 63.232 285.766 30.528C291.238 26.816 293.863 20.128 292.391 13.696C290.919 7.264 285.638 2.4 279.078 1.44C271.59 0.352 264.134 0 256.646 0C124.294 0 16.6465 107.648 16.6465 240C16.6465 372.352 124.294 480 256.646 480C340.646 480 417.062 437.312 460.998 365.824C464.55 360.032 464.039 352.64 459.783 347.328Z" fill="#FBFBFB"/>
</svg>
